raw-svg/home.svg

<svg viewBox="0 0 24 24" xmlns="http://www.w3.org/2000/svg"><path d="m20 11.75a.74.74 0 0 1 -.45-.15l-7.55-5.66-7.55 5.66a.75.75 0 0 1 -.9-1.2l8-6a.75.75 0 0 1 .9 0l8 6a.75.75 0 0 1 .15 1 .74.74 0 0 1 -.6.35z"/><path d="m18 19.75h-12a.76.76 0 0 1 -.75-.75v-9.5a.75.75 0 0 1 1.5 0v8.75h10.5v-8.75a.75.75 0 0 1 1.5 0v9.5a.76.76 0 0 1 -.75.75z"/><path d="m14 19.75a.76.76 0 0 1 -.75-.75v-6.25h-2.5v6.25a.75.75 0 0 1 -1.5 0v-7a.76.76 0 0 1 .75-.75h4a.76.76 0 0 1 .75.75v7a.76.76 0 0 1 -.75.75z"/></svg>

<svg xmlns="http://www.w3.org/2000/svg" viewBox="0 0 24 24"><g id="home"><path d="M20,11.75a.74.74,0,0,1-.45-.15L12,5.94,4.45,11.6a.75.75,0,0,1-.9-1.2l8-6a.75.75,0,0,1,.9,0l8,6a.75.75,0,0,1,.15,1A.74.74,0,0,1,20,11.75Z"/><path d="M18,19.75H6A.76.76,0,0,1,5.25,19V9.5a.75.75,0,0,1,1.5,0v8.75h10.5V9.5a.75.75,0,0,1,1.5,0V19A.76.76,0,0,1,18,19.75Z"/><path d="M14,19.75a.76.76,0,0,1-.75-.75V12.75h-2.5V19a.75.75,0,0,1-1.5,0V12a.76.76,0,0,1,.75-.75h4a.76.76,0,0,1,.75.75v7A.76.76,0,0,1,14,19.75Z"/></g></svg>
